X:1
T:“Follow Me!” A Call So Tender
T:Andrew L. Skoog, 1890
T:“Follow Me!” A Call So Tender
T:Public Domain
T:Public Domain
C:Andrew L. Skoog, 1890
Z:Public Domain
%%score ( 1 2 ) ( 3 4 )
L:1/8
M:3/4
K:A
V:1 treble 
V:2 treble 
V:3 bass 
V:4 bass 
V:1
 [CE]>[CE] | [CA]3 [EA] [EG][EA] | [EB]2 E2 [EB]>[Ec] | [Gd]3 [DG] [DF][DE] | [CE]4 [CE]>[CE] | %5
w: 1.~“Fol- low|Me!” A call so|ten- der Falls up-|my list- ’ning ear;|’Tis the voice|
w: 2.~In- to|pas- tures green He|lead- eth, His own|He calls by name;|When their feet|
w: 3.~Lit- tle|flock, fear not! He|shields thee From the|gers of the land.|Hear His prom-|
w: 4.~In His|steps, then, I would|fol- low, Seek in|my all in all;|I am safe,|
 [CA]3 [EA] [EG][EA] | [EB]2 E2 [EB]>[Ec] | [Gd]3 E [^DF][=DG] | [CA]4 || %9
w: of Christ, my Sav-|ior, ’Tis the Shep-|call I hear. *||
w: are sore and wear-|y, In His arms|car- ries them. O|call!|
w: ise: None shall ev-|er Pluck thee from|might- y hand. *||
w: what- e’er be- falls|me, When I heed|ten- der call. *||
[M:4/4]"^Refrain" [Ec]>[CA] | ([DF]2 [Fd]4) [Ec]>[CA] | ([CE]2 [Ec]4) [CA]>[A,F] | %12
w: |||
w: Lov- ing|call! * ’Tis the|sweet- * est voice|
w: |||
w: |||
 ([B,^D]2 [DB]3) [DA] [Dc]>[DB] | (E2 B,C D2) E>[DE] | [CA]4- [CA][EA][EB][Ec] | %15
w: |||
w: of * all. How it|draws * * * me near-|Him * When I hear|
w: |||
w: |||
 [Fd]4 [DF]2 [Fc]>[FB] | ([EA-]4 [DA])[DG][DF][DG] | [CA]6 |] %18
w: |||
w: my Shep- herd’s call!|||
w: |||
w: |||
V:2
 x2 | x6 | x2 E2 x2 | x6 | x6 | x6 | x2 E2 x2 | x3 E x2 | x4 ||[M:4/4] x2 | x8 | x8 | x8 | %13
w: ||on||||herd’s|||||||
w: ||sheep||||He|that||||||
w: ||dan-||||His|||||||
w: ||Him||||His|||||||
 E6 E3/2 x/ | x8 | x8 | x8 | x6 |] %18
w: |||||
w: er to|||||
w: |||||
w: |||||
V:3
 [A,,A,]>[A,,A,] | [A,,E,]3 [C,A,] [B,,B,][A,,C] | [E,G,]2 [E,G,]2 [E,G,]>[E,A,] | %3
w: ~ ~|~ ~ ~ ~|~ ~ ~ ~|
 [E,B,]3 [E,B,] [E,A,][E,G,] | [A,,A,]4 [A,,A,]>[A,,A,] | [A,,E,]3 [C,A,] [B,,B,][A,,C] | %6
w: ~ ~ ~ ~|~ ~ ~|~ ~ ~ ~|
 [E,G,]2 [E,G,]2 [E,G,]>[E,A,] | [E,B,]3 [E,G,] [E,A,][E,B,] | [A,,A,]4 ||[M:4/4] z2 | %10
w: ~ ~ ~ ~|~ ~ ~ ~|~||
 [D,A,]>[D,A,] [D,A,]>[D,A,] [D,A,]2 z2 | [A,,A,]>[A,,A,] [A,,A,]>[A,,A,] [A,,A,]2 z2 | %12
w: O that ten- der call!|Hear that lov- ing call!|
 [B,,F,]2 [B,,F,]2 [B,,F,]2 [B,,A,]2 | [E,G,]2 (G,A,) [E,B,]2 [E,C]>[E,B,] | %14
w: ’Tis the sweet- est|voice of * all. How it|
 [A,,A,]2 [A,,A,]>[A,,A,] [A,,A,][C,A,][E,G,]A, | [D,A,]4 [D,A,]2 [D,D]>[D,D] | %16
w: how it draws me near- er to|When I hear, when|
 [E,C]2 [E,C]>[E,C] [E,B,][E,B,][E,B,][E,B,] | [A,,A,]6 |] %18
w: I hear my Shep- herd’s call! *||
V:4
 x2 | x6 | x6 | x6 | x6 | x6 | x6 | x6 | x4 ||[M:4/4] x2 | x8 | x8 | x8 | x2 E,2 x4 | x7 A, | x8 | %16
w: |||||||||||||draws,|Him||
 x8 | x6 |] %18
w: ||

